!!!OTL: FRISCH LUSTIG UND FROEHLICH
!!!ARE: Europa, Mitteleuropa, Deutschland, Schlesien
!!!SCT: E1614
!!!YEM: Copyright 1995, estate of Helmut Schaffrath.
**kern
*ICvox
*Ivox
*M3/4
*k[b-e-a-]
*E-:
{4e-
=1
4e-
4B-
4g
=2
4g
4e-}
{4b-
=3
4b-
8cc
8b-
8a-
8g
=4
4g
4f}
{4e-
=5
4e-
4B-
4g
=6
4g
4e-}
{4b-
=7
4b-
8cc
8b-
8a-
8g
=8
4g
4f}
{8b-
8b-
=9
8cc
8dd
4ee-
8dd
8cc
=10
4b-
4g}
{4b-
=11
8cc
8dd
4ee-
8dd
8cc
=12
2b-}
{4ee-
=13
8cc
8dd
4ee-
8dd
8cc
=14
8b-
8gg
4gg}
{8ff
8ee-
=15
4ff
4ff
4dd
=16
2ee-}
==
!!!AGN: Staende -, Handwerker -, Gesellen - Lied, Wanderschaft
!!!ONB: ESAC (Essen Associative Code) Database: ERK3
!!!AMT: simple triple
!!!AIN: vox
!!!EED: Helmut Schaffrath
!!!EEV: 1.0
*-
